/* XPM */
static const char * const neo2da_icon_xpm[] = {
/* columns rows colors chars-per-pixel */
"32 32 138 2 ",
"   c None",
".  c #030200",
"X  c #090700",
"o  c #0A0900",
"O  c #110E00",
"+  c #161300",
"@  c #1D1600",
"#  c #1E1900",
"$  c #241D00",
"%  c #282300",
"&  c #322A00",
"*  c #353000",
"=  c #3E3300",
"-  c #3F3B00",
";  c #423400",
":  c #433B00",
">  c #493F00",
",  c #4D4300",
"<  c #524900",
"1  c #584D00",
"2  c #5E5300",
"3  c #635601",
"4  c #645C00",
"5  c #6A5D00",
"6  c #6D6300",
"7  c #6E6800",
"8  c #736600",
"9  c #756C00",
"0  c #7B6D00",
"q  c #777700",
"w  c #7E7600",
"e  c #847401",
"r  c #857A00",
"t  c #8A7B01",
"y  c #878000",
"u  c #8D8300",
"i  c #948501",
"p  c #958801",
"a  c #9B8B01",
"s  c #9E9100",
"d  c #A28F01",
"f  c #A49401",
"g  c #AE9701",
"h  c #A69B01",
"j  c #AB9901",
"k  c #B19B01",
"l  c #AFA200",
"z  c #B4A200",
"x  c #B9A601",
"c  c #BAA901",
"v  c #BCB301",
"b  c #BFBA00",
"n  c #C2AD01",
"m  c #C5B600",
"M  c #CBB601",
"N  c #C0BD01",
"B  c #CBBA01",
"V  c #D2BB01",
"C  c #C4C201",
"Z  c #CFCF01",
"A  c #D5C501",
"S  c #DAC401",
"D  c #D4CC01",
"F  c #DDCB01",
"G  c #D7D000",
"H  c #DFD301",
"J  c #E4CC01",
"K  c #E8CE01",
"L  c #E5D401",
"P  c #EBD401",
"I  c #E4DA01",
"U  c #EBD901",
"Y  c #F1D601",
"T  c #F4DB01",
"R  c #F8DF01",
"E  c #ECE401",
"W  c #EFEC01",
"Q  c #F5E201",
"!  c #FAE701",
"~  c #FCE401",
"^  c #FDE401",
"/  c #FEE701",
"(  c #FBE201",
")  c #F7E801",
"_  c #F7E901",
"`  c #F4EA01",
"'  c #F1EE01",
"]  c #F0EF01",
"[  c #F3EF01",
"{  c #F6EC01",
"}  c #F6ED01",
"|  c #F8E801",
" . c #F8E901",
".. c #FEE801",
"X. c #FFE801",
"o. c #FFE901",
"O. c #FCEB01",
"+. c #F8EC01",
"@. c #FBEF01",
"#. c #FDED01",
"$. c #FEEC01",
"%. c #FCEE01",
"&. c #FEEF01",
"*. c #FCEB01",
"=. c #F3F301",
"-. c #F7F001",
";. c #F7F701",
":. c #F5F501",
">. c #F9F201",
",. c #FCF001",
"<. c #FCF101",
"1. c #FFF001",
"2. c #FFF101",
"3. c #FCF201",
"4. c #FCF301",
"5. c #FAF501",
"6. c #FAF701",
"7. c #FCF401",
"8. c #FCF501",
"9. c #FEF401",
"0. c #FFF401",
"q. c #FCF601",
"w. c #FFF601",
"e. c #FCF401",
"r. c #F6F801",
"t. c #F8F801",
"y. c #FBF801",
"u. c #FAFA01",
"i. c #FDF901",
"p. c #FFF901",
"a. c #FDFB01",
"s. c #FFFB01",
"d. c #FCFC01",
"f. c #FDFD01",
"g. c #FFFC01",
"h. c #FEFE01",
"j. c #FFFF01",
"k. c #FEFE01",
/* pixels */
"                                                                ",
"                                                                ",
"                                                                ",
"                                                                ",
"                                                                ",
"                                                                ",
"    o + .                                                       ",
"& B T R ( l O < x p a a a a a a 3 .     a f p a a p f a *       ",
"2 ] ~ P T d.v e D d.+.8.1.1.1.8.d.F     E d.-.8.8.>.y.] 0       ",
"1 ] d.+.T P 8.i u 1.P P R ~ ( P K d.s @ B ..J T U J T ! t       ",
"< j 3 i Q T 1.l a ..R T F V F ..R R ( 8 Z d.T ~ P g v d.k       ",
".       t R a.c 0 M d.L ,   . < &.T ..6 a x M 8.F 3 u d.V       ",
"        = A d.m @ 4 d.L 4       z ! y.0     t d.C & 7 d.L       ",
"          A d.v & w d.L 4       8 +.{ J     M d.v     d.E 5     ",
"        2 H d.a   u d.L 5       6 +.{ T     D d.g     a.W e     ",
"        g y.d.    z d.U 5       4 ! +.(     E a.e     L a.k     ",
"      5 I =.l     z d.U 5       6 ) ! T   5 a.E       m d.V     ",
"    : I ;.L >     f d.U 4       6 ) &.L   e d.b &   O r d.P     ",
"  : E y...>       j d.U 6       p +.8.m o h d.J V V V S ~ ) 4   ",
"> W &.P &         f d.H ,     # R T d.i $ N 8.Y 1.r.5.Q U 1.t   ",
"r Q ..S r 9 a 6 @ y d.P f 5 r J ..P d.- : I 1.J S M V J ( &.f   ",
"8 Q T T 1.+.d.G ; 9 d.K &.5.1.( J +.R   9 R d.h +   . 6 d.( M   ",
"e =.&.~ ~ T d.D = q d.Y R T T T >.d.4   d 8.d.d         8.;.P   ",
"3 S V M B n L l % w d.F P P P P V ,     c ~ ( 5         J ( P < ",
". . . . . . . .   . o . . . . o         o o .           . . X . ",
"                                                                ",
"                                                                ",
"                                                                ",
"                                                                ",
"                                                                ",
"                                                                ",
"                                                                "
};
